public/client-logos/YG.svg

<svg xmlns="http://www.w3.org/2000/svg" xmlns:xlink="http://www.w3.org/1999/xlink" width="2477pt" height="352pt" viewBox="0 0 2477 352" version="1.1">
<g id="surface1">
<path style="stroke:none;fill-rule:nonzero;fill:rgb(7.45098%,3.529412%,4.313725%);fill-opacity:1" d="M 891.09375 107.136719 L 891.09375 149.660156 L 857.992188 149.660156 L 857.992188 107.136719 L 812.257812 2.226562 L 846.886719 2.226562 L 874.542969 70.628906 L 902.074219 2.226562 L 936.800781 2.226562 Z M 891.09375 107.136719 "></path>
<path style="stroke:none;fill-rule:nonzero;fill:rgb(7.45098%,3.529412%,4.313725%);fill-opacity:1" d="M 998.386719 151.917969 C 962.613281 151.917969 944.503906 133.554688 944.503906 106.753906 L 944.503906 45.003906 C 944.503906 17.761719 962.613281 -0.160156 998.386719 -0.160156 C 1014.175781 -0.03125 1029.929688 1.527344 1045.429688 4.488281 L 1041.417969 33.515625 C 1027.160156 31.414062 1012.804688 30.238281 998.386719 29.949219 C 981.835938 29.949219 977.605469 38.609375 977.605469 50.097656 L 977.605469 100.800781 C 977.605469 112.324219 981.835938 121.871094 998.386719 121.871094 C 1004.976562 121.9375 1011.53125 121.457031 1018.027344 120.503906 L 1018.027344 75.496094 L 1049.21875 75.496094 L 1049.21875 144.980469 C 1032.667969 149.660156 1015.574219 152.046875 998.386719 152.078125 "></path>
<path style="stroke:none;fill-rule:nonzero;fill:rgb(7.45098%,3.529412%,4.313725%);fill-opacity:1" d="M 826.578125 349.351562 L 826.578125 201.921875 L 919.105469 201.921875 L 919.105469 231.332031 L 859.742188 231.332031 L 859.742188 258.355469 L 914.488281 258.355469 L 914.488281 287.761719 L 859.742188 287.761719 L 859.742188 319.878906 L 919.105469 319.878906 L 919.105469 349.351562 Z M 826.578125 349.351562 "></path>
<path style="stroke:none;fill-rule:nonzero;fill:rgb(7.45098%,3.529412%,4.313725%);fill-opacity:1" d="M 976.078125 252.339844 L 976.078125 349.351562 L 944.503906 349.351562 L 944.503906 201.921875 L 985.148438 201.921875 L 1033.496094 303.519531 L 1033.496094 201.921875 L 1065.066406 201.921875 L 1065.066406 349.351562 L 1024.265625 349.351562 Z M 976.078125 252.339844 "></path>
<path style="stroke:none;fill-rule:nonzero;fill:rgb(7.45098%,3.529412%,4.313725%);fill-opacity:1" d="M 1154.726562 231.332031 L 1154.726562 349.351562 L 1121.625 349.351562 L 1121.625 231.332031 L 1082.0625 231.332031 L 1082.0625 201.921875 L 1194.324219 201.921875 L 1194.324219 231.332031 Z M 1154.726562 231.332031 "></path>
<path style="stroke:none;fill-rule:nonzero;fill:rgb(7.45098%,3.529412%,4.313725%);fill-opacity:1" d="M 1211.320312 349.351562 L 1211.320312 201.921875 L 1303.84375 201.921875 L 1303.84375 231.332031 L 1244.421875 231.332031 L 1244.421875 258.355469 L 1299.226562 258.355469 L 1299.226562 287.761719 L 1244.421875 287.761719 L 1244.421875 319.878906 L 1303.84375 319.878906 L 1303.84375 349.351562 Z M 1211.320312 349.351562 "></path>
<path style="stroke:none;fill-rule:nonzero;fill:rgb(7.45098%,3.529412%,4.313725%);fill-opacity:1" d="M 1381.980469 303.519531 L 1362.597656 303.519531 L 1362.597656 349.351562 L 1329.496094 349.351562 L 1329.496094 201.921875 L 1390.605469 201.921875 C 1426.414062 201.921875 1439.65625 216.054688 1439.65625 243.777344 L 1439.65625 261.917969 C 1439.65625 280.285156 1433.035156 292.792969 1418.265625 298.871094 L 1453.816406 349.351562 L 1414.476562 349.351562 Z M 1406.332031 247.023438 C 1406.332031 235.882812 1402.097656 231.585938 1388.601562 231.585938 L 1362.375 231.585938 L 1362.375 274.96875 L 1388.601562 274.96875 C 1402.765625 274.96875 1406.332031 269.875 1406.332031 258.832031 Z M 1406.332031 247.023438 "></path>
<path style="stroke:none;fill-rule:nonzero;fill:rgb(7.45098%,3.529412%,4.313725%);fill-opacity:1" d="M 1526.640625 231.332031 L 1526.640625 349.351562 L 1493.539062 349.351562 L 1493.539062 231.332031 L 1454.039062 231.332031 L 1454.039062 201.921875 L 1566.203125 201.921875 L 1566.203125 231.332031 Z M 1526.640625 231.332031 "></path>
<path style="stroke:none;fill-rule:nonzero;fill:rgb(7.45098%,3.529412%,4.313725%);fill-opacity:1" d="M 1694.089844 349.351562 L 1659.585938 349.351562 L 1651.886719 320.578125 L 1602.613281 320.578125 L 1594.914062 349.351562 L 1560.507812 349.351562 L 1605.257812 201.921875 L 1649.433594 201.921875 Z M 1609.933594 292.855469 L 1643.738281 292.855469 L 1626.964844 231.109375 Z M 1609.933594 292.855469 "></path>
<path style="stroke:none;fill-rule:nonzero;fill:rgb(7.45098%,3.529412%,4.313725%);fill-opacity:1" d="M 1711.785156 201.859375 L 1744.886719 201.859375 L 1744.886719 349.351562 L 1711.785156 349.351562 Z M 1711.785156 201.859375 "></path>
<path style="stroke:none;fill-rule:nonzero;fill:rgb(7.45098%,3.529412%,4.313725%);fill-opacity:1" d="M 1806.316406 252.339844 L 1806.316406 349.351562 L 1774.679688 349.351562 L 1774.679688 201.921875 L 1815.324219 201.921875 L 1863.671875 303.519531 L 1863.671875 201.921875 L 1895.308594 201.921875 L 1895.308594 349.351562 L 1854.441406 349.351562 Z M 1806.316406 252.339844 "></path>
<path style="stroke:none;fill-rule:nonzero;fill:rgb(7.45098%,3.529412%,4.313725%);fill-opacity:1" d="M 1956.035156 267.457031 L 1953.808594 349.351562 L 1921.789062 349.351562 L 1927.964844 201.921875 L 1961.0625 201.921875 L 1996.457031 295.785156 L 2031.722656 201.921875 L 2064.886719 201.921875 L 2071.0625 349.351562 L 2039.042969 349.351562 L 2036.816406 267.457031 L 2011.257812 330.285156 L 1981.6875 330.285156 Z M 1956.035156 267.457031 "></path>
<path style="stroke:none;fill-rule:nonzero;fill:rgb(7.45098%,3.529412%,4.313725%);fill-opacity:1" d="M 2097.542969 349.351562 L 2097.542969 201.921875 L 2190.164062 201.921875 L 2190.164062 231.332031 L 2130.707031 231.332031 L 2130.707031 258.355469 L 2185.453125 258.355469 L 2185.453125 287.761719 L 2130.707031 287.761719 L 2130.707031 319.878906 L 2190.164062 319.878906 L 2190.164062 349.351562 Z M 2097.542969 349.351562 "></path>
<path style="stroke:none;fill-rule:nonzero;fill:rgb(7.45098%,3.529412%,4.313725%);fill-opacity:1" d="M 2247.105469 252.339844 L 2247.105469 349.351562 L 2215.5625 349.351562 L 2215.5625 201.921875 L 2256.113281 201.921875 L 2304.460938 303.519531 L 2304.460938 201.921875 L 2336.097656 201.921875 L 2336.097656 349.351562 L 2295.230469 349.351562 Z M 2247.105469 252.339844 "></path>
<path style="stroke:none;fill-rule:nonzero;fill:rgb(7.45098%,3.529412%,4.313725%);fill-opacity:1" d="M 2425.789062 231.332031 L 2425.789062 349.351562 L 2392.625 349.351562 L 2392.625 231.332031 L 2353.125 231.332031 L 2353.125 201.921875 L 2465.289062 201.921875 L 2465.289062 231.332031 Z M 2425.789062 231.332031 "></path>
<path style="stroke:none;fill-rule:nonzero;fill:rgb(7.45098%,3.529412%,4.313725%);fill-opacity:1" d="M 11.710938 0.476562 L 11.710938 198.929688 L 209.558594 0.476562 Z M 11.710938 0.476562 "></path>
<path style="stroke:none;fill-rule:nonzero;fill:rgb(7.45098%,3.529412%,4.313725%);fill-opacity:1" d="M 360.675781 0.476562 L 11.710938 350.371094 L 170.21875 350.371094 L 360.742188 159.335938 L 550.914062 350.371094 L 709.546875 350.371094 L 709.546875 161.339844 L 606.167969 161.339844 L 606.167969 249.472656 L 460.363281 103.285156 L 709.546875 103.285156 L 709.546875 0.476562 Z M 360.675781 0.476562 "></path>
</g>
</svg>

<svg xmlns="http://www.w3.org/2000/svg" width="2477pt" height="352pt" viewBox="0 0 2477 352"><path d="M891.094 107.137v42.523h-33.102v-42.523L812.258 2.227h34.629l27.656 68.402 27.531-68.402h34.727ZM998.387 151.918c-35.774 0-53.883-18.363-53.883-45.164v-61.75c0-27.242 18.11-45.164 53.883-45.164a262.196 262.196 0 0 1 47.043 4.648l-4.012 29.028a341.895 341.895 0 0 0-43.031-3.567c-16.551 0-20.782 8.66-20.782 20.149V100.8c0 11.523 4.23 21.07 20.782 21.07 6.59.067 13.144-.414 19.64-1.367V75.496h31.192v69.484a188.033 188.033 0 0 1-50.832 7.098M826.578 349.352v-147.43h92.527v29.41h-59.363v27.023h54.746v29.407h-54.746v32.117h59.363v29.473ZM976.078 252.34v97.012h-31.574v-147.43h40.644l48.348 101.598V201.922h31.57v147.43h-40.8ZM1154.727 231.332v118.02h-33.102v-118.02h-39.563v-29.41h112.262v29.41ZM1211.32 349.352v-147.43h92.524v29.41h-59.422v27.023h54.805v29.407h-54.805v32.117h59.422v29.473ZM1381.98 303.52h-19.382v45.832h-33.102v-147.43h61.11c35.808 0 49.05 14.133 49.05 41.855v18.141c0 18.367-6.62 30.875-21.39 36.953l35.55 50.48h-39.34Zm24.352-56.497c0-11.14-4.234-15.437-17.73-15.437h-26.227v43.383h26.227c14.164 0 17.73-5.094 17.73-16.137ZM1526.64 231.332v118.02h-33.1v-118.02h-39.5v-29.41h112.163v29.41ZM1694.09 349.352h-34.504l-7.7-28.774h-49.273l-7.699 28.774h-34.406l44.75-147.43h44.176Zm-84.156-56.497h33.804l-16.773-61.746ZM1711.785 201.86h33.102v147.492h-33.102ZM1806.316 252.34v97.012h-31.636v-147.43h40.644l48.348 101.598V201.922h31.637v147.43h-40.868ZM1956.035 267.457l-2.226 81.895h-32.02l6.176-147.43h33.098l35.394 93.863 35.266-93.863h33.164l6.175 147.43h-32.019l-2.227-81.895-25.558 62.828h-29.57ZM2097.543 349.352v-147.43h92.621v29.41h-59.457v27.023h54.746v29.407h-54.746v32.117h59.457v29.473ZM2247.105 252.34v97.012h-31.543v-147.43h40.551l48.348 101.598V201.922h31.637v147.43h-40.868ZM2425.79 231.332v118.02h-33.165v-118.02h-39.5v-29.41h112.164v29.41ZM11.71.477V198.93L209.56.477ZM360.676.477 11.71 350.37h158.508l190.523-191.035L550.914 350.37h158.633V161.34H606.168v88.133L460.363 103.285h249.184V.477Zm0 0" style="stroke:none;fill-rule:nonzero;fill:#fff;fill-opacity:1"/></svg>
